X:1
T:8. Allemaingne
T:8. Allemaingne
T:Tielman Susato
C:Tielman Susato
%%score 1 2 3 4
L:1/8
M:4/2
K:C
V:1 treble 
V:2 treble 
V:3 treble 
V:4 treble 
V:1
 D8 D4 E4 | F12 A4 | G4 F4 F4 E4 | F8 z8 | D12 E4 | F12 A4 | G4 F4 F4 E4 | F8 z4 A4 | G6 F2 E4 G4 | %9
 F6 E2 D4 F4 | E4 D4 D4 ^C4 | D8 z4 A4 | G6 F2 E4 G4 | F6 E2 D4 F4 | E4 D4 D4 ^C4 | D8 z8 :| %16
[M:3/4]"^Recoupe" D2 x2 | F4 F2 x6 | G3 E FG x6 | A4 A2 x6 | A4 A2 x6 | A4 A2 x6 | _B2 A2 G2 x6 | %23
 ^F4 F2 x6 | ^F4 x4 :: F2 x2 | A3 G F2 x6 | E4 D2 x6 | G4 G2 x6 | G4 G2 x6 | A4 F2 x6 | G2 E4 x6 | %32
 D4 x8 |[M:3/4]"^Recoupe" D2 x6 :| D4 D2 | E3 C DE x12 | F4 F2 x12 | F4 F2 x12 | F4 F2 x12 | %39
 E3 D E2 x12 | F4 F2 x12 | F4 x14 | D2 x10 :: F3 E D2 | C4 D2 x12 | E4 E2 x12 | E4 E2 x12 | %47
 F2 E3 D x12 | D4 ^C2 x12 | D4 D2 x12 | D4 x14 | x12 :| %52
V:2
 A,8 A,4 C4 | C8 C4 C4 | C4 A,4 C8 | A,8 z8 | A,8 A,4 C4 | C8 C4 C4 | C4 A,4 C8 | A,8 z4 C4 | %8
 C8 C4 B,4 | D8 A,4 A,4 | C4 A,4 A,8 | F,8 z4 C4 | C8 C4 B,4 | D8 A,4 A,4 | C4 A,4 A,8 | ^F,8 z8 :| %16
[M:3/4] A,2 x2 | D4 D2 x6 | E4 A,2 x6 | F4 F2 x6 | F4 F2 x6 | F4 F,2 x6 | G,2 A,2 _B,C x6 | %23
 D4 D2 x6 | D4 x4 :: D2 x2 | D4 D2 x6 | C4 D2 x6 | E4 E2 x6 | E4 E2 x6 | C4 D2 x6 | B,2 ^C4 x6 | %32
 D4 D2 x6 | D4 x4 :|[M:3/4] G,6 | A,12 A,6 | C6 A,6 _B,6 | C12 C6 | C12 C6 | C12 C6 | C12 C6 | %41
 A,12 A,6 | A,12 :: A,6 | D12 A,6 | A,12 B,6 | C12 C6 | C12 B,6 | D6 C6 A,6 | _B,6 A,12 | %50
 ^F,12 F,6 | ^F,12 :| %52
V:3
 D,8 F,4 G,4 | A,12 F,4 | E,4 F,4 G,8 | F,8 z8 | D,8 F,4 G,4 | A,12 F,4 | E,4 F,4 G,8 | %7
 F,8 z4 F,4 | G,12 G,4 | A,6 G,2 F,4 D,4 | G,4 F,4 E,8 | D,8 z4 F,4 | G,12 G,4 | A,6 G,2 F,4 D,4 | %14
 G,4 F,4 E,8 | D,8 z8 :|[M:3/4] F,2 x2 | A,4 A,2 x6 | B,3 C D2 x6 | C4 D2 x6 | C4 D2 x6 | %21
 C4 D2 x6 | D3 C _B,2 x6 | A,4 A,2 x6 | A,4 x4 :: A,2 x2 | F,3 G, A,B, x6 | C2 A,2 B,2 x6 | %28
 C4 B,2 x6 | C4 B,2 x6 | A,4 A,2 x6 | G,2 ^C,4 x6 | ^F,4 F,2 x6 | ^F,4 x4 :| %34
[M:3/4]"^c. f." D,2 x4 | F,4 F,2 x12 | G,3 E, F,G, x12 | A,4 A,2 x12 | A,4 A,2 x12 | A,4 A,2 x12 | %40
 G,4 G,2 x12 | F4 F,2 x12 | F,4 x8 :: F,2 x4 | A,3 G F,2 x12 | E,4 D,2 x12 | G,4 G,2 x12 | %47
 G,4 G,2 x12 | A,4 F,2 x12 | G,2 E,4 x12 | D,4 D,2 x12 | D,4 x8 :| %52
V:4
 D,8 D,4 C,4 | F,,8 F,,4 F,,4 | C,4 D,4 C,8 | F,,8 z8 | D,8 D,4 C,4 | F,,8 F,,4 F,,4 | %6
 C,4 D,4 C,8 | F,,8 z4 F,,4 | C,8 C,4 E,4 | D,8 D,4 D,4 | C,4 D,4 A,,8 | D,,8 z4 F,,4 | %12
 C,8 C,4 E,4 | D,8 D,4 D,4 | C,4 D,4 A,,8 | D,8 z8 :| D,4 | D,8 F,4 | E,8 D,4 | F,8 D,4 | F,8 D,4 | %21
 F,8 D,4 | G,,4 D,4 G,4 | D,8 D,4 | D,8 :: D,4 | D,8 D,4 | A,8 D,4 | C,6 D,2 E,4 | C,6 D,2 E,4 | %30
 A,,8 D,4 | G,,4 A,,8 | D,8 D,4 | D,8 :|[M:3/4] G,,2 x4 | D,4 D,2 x12 | C,4 _B,,2 x12 | %37
 F,,4 F,,2 x12 | F,,4 F,,2 x12 | F,,4 F,,2 x12 | C,4 C,2 x12 | F,,4 F,,2 x12 | F,,4 x8 :: D,2 x4 | %44
 D,4 D,2 x12 | A,,4 D,2 x12 | C,4 C,2 x12 | C,3 D, E,2 x12 | D,2 A,,2 D,2 x12 | G,,2 A,,4 x12 | %50
 D,4 D,2 x12 | D,4 x8 :| %52

